X:1
T:Lackström II
R:Polska
D:[[Grupper/Sågskära]] - Orm
N:Jämför med SMUS M189 nr 3 på sidan.
O:Småland
S:Efter Lackström
M:3/4
L:1/16
K:Dm
A |: d^cde fefg a3f | d^cdf A8 | GBdB DFAF E3E | F3F FEDF E3E |
F2AF E2AE D2AD | E2DE ^c4- cA=Bc | d^cde fefg a3f |[1 d^cdf agec d3A :|
[2 d^cdf agec d3e |: f3f agfe d^cde |f2^g2 a3a a2=g2 | f3f agfe d^cde | 
f2a2 c6 e2 | f3f agfe d^cde | f2a2 d'4 a3a | bagf agfe gfed | fed^c d8 :|

